app/component-library/components/Icons/Icon/assets/bank-token.svg

<svg width="24" height="24" viewBox="0 0 24 24" fill="none" xmlns="http://www.w3.org/2000/svg">
<path d="M22.2808 15C22.2808 18.87 19.1508 22 15.2808 22L16.3307 20.25" stroke="currentColor" stroke-width="1.5" stroke-linecap="round" stroke-linejoin="round"/>
<path d="M2.28076 9C2.28076 5.13 5.41076 2 9.28076 2L8.23077 3.75" stroke="currentColor" stroke-width="1.5" stroke-linecap="round" stroke-linejoin="round"/>
<path d="M11.2817 21.7241H1.28174V20.2241C1.28174 19.9491 1.50674 19.7241 1.78174 19.7241H10.7817C11.0567 19.7241 11.2817 19.9491 11.2817 20.2241V21.7241Z" fill="currentColor"/>
<path fill-rule="evenodd" clip-rule="evenodd" d="M10.9667 13.5995L6.46674 11.7995C6.36674 11.7595 6.19674 11.7595 6.09674 11.7995L1.59674 13.5995C1.42174 13.6695 1.28174 13.8795 1.28174 14.0645V15.7245C1.28174 15.9995 1.50674 16.2245 1.78174 16.2245H10.7817C11.0567 16.2245 11.2817 15.9995 11.2817 15.7245V14.0645C11.2817 13.8795 11.1417 13.6695 10.9667 13.5995ZM7.28174 13.9971C7.28174 14.5494 6.83402 14.9971 6.28174 14.9971C5.72945 14.9971 5.28174 14.5494 5.28174 13.9971C5.28174 13.4448 5.72945 12.9971 6.28174 12.9971C6.83402 12.9971 7.28174 13.4448 7.28174 13.9971Z" fill="currentColor"/>
<path d="M11.2817 21.7241V22.0991C11.4888 22.0991 11.6567 21.9312 11.6567 21.7241H11.2817ZM1.28174 21.7241H0.906738C0.906738 21.9312 1.07463 22.0991 1.28174 22.0991V21.7241ZM1.90479 19.7236C1.90479 19.9307 2.07268 20.0986 2.27979 20.0986C2.48689 20.0986 2.65479 19.9307 2.65479 19.7236H1.90479ZM2.65479 16.2236C2.65479 16.0165 2.48689 15.8486 2.27979 15.8486C2.07268 15.8486 1.90479 16.0165 1.90479 16.2236H2.65479ZM3.90674 19.7236C3.90674 19.9307 4.07463 20.0986 4.28174 20.0986C4.48885 20.0986 4.65674 19.9307 4.65674 19.7236H3.90674ZM4.65674 16.2236C4.65674 16.0165 4.48885 15.8486 4.28174 15.8486C4.07463 15.8486 3.90674 16.0165 3.90674 16.2236H4.65674ZM5.90576 19.7236C5.90576 19.9307 6.07365 20.0986 6.28076 20.0986C6.48787 20.0986 6.65576 19.9307 6.65576 19.7236H5.90576ZM6.65576 16.2236C6.65576 16.0165 6.48787 15.8486 6.28076 15.8486C6.07365 15.8486 5.90576 16.0165 5.90576 16.2236H6.65576ZM7.90479 19.7236C7.90479 19.9307 8.07268 20.0986 8.27979 20.0986C8.48689 20.0986 8.65479 19.9307 8.65479 19.7236H7.90479ZM8.65479 16.2236C8.65479 16.0165 8.48689 15.8486 8.27979 15.8486C8.07268 15.8486 7.90479 16.0165 7.90479 16.2236H8.65479ZM9.90674 19.7236C9.90674 19.9307 10.0746 20.0986 10.2817 20.0986C10.4888 20.0986 10.6567 19.9307 10.6567 19.7236H9.90674ZM10.6567 16.2236C10.6567 16.0165 10.4888 15.8486 10.2817 15.8486C10.0746 15.8486 9.90674 16.0165 9.90674 16.2236H10.6567ZM0.779785 21.3496C0.572678 21.3496 0.404785 21.5175 0.404785 21.7246C0.404785 21.9317 0.572678 22.0996 0.779785 22.0996V21.3496ZM11.7798 22.0996C11.9869 22.0996 12.1548 21.9317 12.1548 21.7246C12.1548 21.5175 11.9869 21.3496 11.7798 21.3496V22.0996ZM6.46674 11.7995L6.32746 12.1477L6.32747 12.1477L6.46674 11.7995ZM10.9667 13.5995L11.106 13.2513L11.106 13.2513L10.9667 13.5995ZM6.09674 11.7995L6.23601 12.1477L6.23601 12.1477L6.09674 11.7995ZM1.59674 13.5995L1.45747 13.2513L1.45747 13.2513L1.59674 13.5995ZM11.2817 21.3491H1.28174V22.0991H11.2817V21.3491ZM1.65674 21.7241V20.2241H0.906738V21.7241H1.65674ZM1.65674 20.2241C1.65674 20.1562 1.71385 20.0991 1.78174 20.0991V19.3491C1.29963 19.3491 0.906738 19.742 0.906738 20.2241H1.65674ZM1.78174 20.0991H10.7817V19.3491H1.78174V20.0991ZM10.7817 20.0991C10.8496 20.0991 10.9067 20.1562 10.9067 20.2241H11.6567C11.6567 19.742 11.2638 19.3491 10.7817 19.3491V20.0991ZM10.9067 20.2241V21.7241H11.6567V20.2241H10.9067ZM2.65479 19.7236V16.2236H1.90479V19.7236H2.65479ZM4.65674 19.7236V16.2236H3.90674V19.7236H4.65674ZM6.65576 19.7236V16.2236H5.90576V19.7236H6.65576ZM8.65479 19.7236V16.2236H7.90479V19.7236H8.65479ZM10.6567 19.7236V16.2236H9.90674V19.7236H10.6567ZM0.779785 22.0996H11.7798V21.3496H0.779785V22.0996ZM6.32747 12.1477L10.8275 13.9477L11.106 13.2513L6.60601 11.4514L6.32747 12.1477ZM6.23601 12.1477C6.22881 12.1506 6.22985 12.1492 6.24135 12.1474C6.25186 12.1457 6.2659 12.1445 6.28174 12.1445C6.29758 12.1445 6.31162 12.1457 6.32212 12.1474C6.33363 12.1492 6.33467 12.1506 6.32746 12.1477L6.60601 11.4514C6.4974 11.4079 6.37862 11.3945 6.28174 11.3945C6.18486 11.3945 6.06608 11.4079 5.95747 11.4514L6.23601 12.1477ZM1.73601 13.9477L6.23601 12.1477L5.95747 11.4514L1.45747 13.2513L1.73601 13.9477ZM1.65674 14.0645C1.65674 14.0649 1.65683 14.0578 1.66151 14.044C1.6661 14.0305 1.67375 14.0145 1.68456 13.9985C1.69537 13.9825 1.70725 13.9694 1.71808 13.9601C1.72334 13.9556 1.72777 13.9525 1.73107 13.9504C1.73437 13.9484 1.73609 13.9477 1.73601 13.9477L1.45747 13.2513C1.28597 13.3199 1.15215 13.4465 1.06266 13.5793C0.973301 13.7119 0.906738 13.8823 0.906738 14.0645H1.65674ZM1.65674 15.7245V14.0645H0.906738V15.7245H1.65674ZM1.78174 15.8495C1.71385 15.8495 1.65674 15.7924 1.65674 15.7245H0.906738C0.906738 16.2066 1.29963 16.5995 1.78174 16.5995V15.8495ZM10.7817 15.8495H1.78174V16.5995H10.7817V15.8495ZM10.9067 15.7245C10.9067 15.7924 10.8496 15.8495 10.7817 15.8495V16.5995C11.2638 16.5995 11.6567 16.2066 11.6567 15.7245H10.9067ZM10.9067 14.0645V15.7245H11.6567V14.0645H10.9067ZM10.8275 13.9477C10.8274 13.9477 10.8291 13.9484 10.8324 13.9504C10.8357 13.9525 10.8401 13.9556 10.8454 13.9601C10.8562 13.9694 10.8681 13.9825 10.8789 13.9985C10.8897 14.0145 10.8974 14.0305 10.902 14.044C10.9066 14.0578 10.9067 14.0649 10.9067 14.0645H11.6567C11.6567 13.8823 11.5902 13.7119 11.5008 13.5793C11.4113 13.4465 11.2775 13.3199 11.106 13.2513L10.8275 13.9477ZM6.28174 15.3721C7.04113 15.3721 7.65674 14.7565 7.65674 13.9971H6.90674C6.90674 14.3422 6.62692 14.6221 6.28174 14.6221V15.3721ZM4.90674 13.9971C4.90674 14.7565 5.52235 15.3721 6.28174 15.3721V14.6221C5.93656 14.6221 5.65674 14.3422 5.65674 13.9971H4.90674ZM6.28174 12.6221C5.52235 12.6221 4.90674 13.2377 4.90674 13.9971H5.65674C5.65674 13.6519 5.93656 13.3721 6.28174 13.3721V12.6221ZM7.65674 13.9971C7.65674 13.2377 7.04113 12.6221 6.28174 12.6221V13.3721C6.62692 13.3721 6.90674 13.6519 6.90674 13.9971H7.65674Z" fill="currentColor"/>
<path d="M12.881 6.06668L16.081 4.66668C16.2144 4.60001 16.3477 4.60001 16.5477 4.66668L19.7477 6.06668C20.0144 6.20001 20.281 5.86668 20.081 5.60001L16.7477 1.53334C16.5477 1.26668 16.1477 1.26668 15.9477 1.53334L12.6144 5.60001C12.3477 5.86668 12.6144 6.20001 12.881 6.06668Z" fill="currentColor"/>
<path d="M12.881 9.93336L16.081 11.3334C16.2144 11.4 16.3477 11.4 16.5477 11.3334L19.7477 9.93336C20.0144 9.80003 20.281 10.1334 20.081 10.4L16.7477 14.4667C16.5477 14.7334 16.1477 14.7334 15.9477 14.4667L12.6144 10.4C12.3477 10.1334 12.6144 9.80003 12.881 9.93336Z" fill="currentColor"/>
<path d="M16.2808 6.26661L12.8141 7.99995L16.2808 9.73328L19.7475 7.99995L16.2808 6.26661Z" fill="currentColor"/>
</svg>

<svg xmlns="http://www.w3.org/2000/svg" width="24" height="24" viewBox="0 0 24 24" fill="none"><path d="M22.28 15c0 3.87-3.13 7-7 7l1.05-1.75M2.28 9c0-3.87 3.13-7 7-7L8.23 3.75" stroke="currentColor" stroke-width="1.5" stroke-linecap="round" stroke-linejoin="round"/><path d="M11.282 21.724h-10v-1.5c0-.275.225-.5.5-.5h9c.275 0 .5.225.5.5v1.5z" fill="currentColor"/><path fill-rule="evenodd" clip-rule="evenodd" d="m10.967 13.6-4.5-1.8a.585.585 0 0 0-.37 0l-4.5 1.8a.541.541 0 0 0-.315.465v1.66c0 .274.225.5.5.5h9c.275 0 .5-.226.5-.5v-1.66a.541.541 0 0 0-.315-.465zm-3.685.397a1 1 0 1 1-2 0 1 1 0 0 1 2 0z" fill="currentColor"/><path d="M11.282 21.724v.375a.375.375 0 0 0 .375-.375h-.375zm-10 0H.907c0 .207.168.375.375.375v-.375zm.623-2a.375.375 0 0 0 .75 0h-.75zm.75-3.5a.375.375 0 0 0-.75 0h.75zm1.252 3.5a.375.375 0 0 0 .75 0h-.75zm.75-3.5a.375.375 0 0 0-.75 0h.75zm1.249 3.5a.375.375 0 0 0 .75 0h-.75zm.75-3.5a.375.375 0 0 0-.75 0h.75zm1.249 3.5a.375.375 0 0 0 .75 0h-.75zm.75-3.5a.375.375 0 0 0-.75 0h.75zm1.252 3.5a.375.375 0 1 0 .75 0h-.75zm.75-3.5a.375.375 0 0 0-.75 0h.75zM.78 21.35a.375.375 0 0 0 0 .75v-.75zm11 .75a.375.375 0 0 0 0-.75v.75zM6.467 11.8l-.14.348.14-.348zm4.5 1.8.139-.349-.14.349zm-4.87-1.8.139.348-.14-.348zm-4.5 1.8-.14-.349.14.349zm9.685 7.75h-10v.75h10v-.75zm-9.625.374v-1.5h-.75v1.5h.75zm0-1.5c0-.068.057-.125.125-.125v-.75a.876.876 0 0 0-.875.875h.75zm.125-.125h9v-.75h-9v.75zm9 0c.068 0 .125.057.125.125h.75a.876.876 0 0 0-.875-.875v.75zm.125.125v1.5h.75v-1.5h-.75zm-8.252-.5v-3.5h-.75v3.5h.75zm2.002 0v-3.5h-.75v3.5h.75zm1.999 0v-3.5h-.75v3.5h.75zm1.999 0v-3.5h-.75v3.5h.75zm2.002 0v-3.5h-.75v3.5h.75zM.78 22.1h11v-.75h-11v.75zm5.547-9.952 4.5 1.8.279-.697-4.5-1.8-.279.697zm-.091 0c-.007.003-.006.001.005 0a.261.261 0 0 1 .081 0c.012.001.013.003.005 0l.279-.697a.891.891 0 0 0-.324-.056.891.891 0 0 0-.325.056l.279.697zm-4.5 1.8 4.5-1.8-.279-.697-4.5 1.8.279.697zm-.08.117s0-.007.006-.021a.196.196 0 0 1 .07-.094l.004-.002-.279-.697a.881.881 0 0 0-.394.328.882.882 0 0 0-.156.486h.75zm0 1.66v-1.66h-.75v1.66h.75zm.126.125a.126.126 0 0 1-.125-.125h-.75c0 .482.393.874.875.874v-.75zm9 0h-9v.75h9v-.75zm.125-.125a.126.126 0 0 1-.125.125v.75a.876.876 0 0 0 .875-.876h-.75zm0-1.66v1.66h.75v-1.66h-.75zm-.08-.117.005.002a.196.196 0 0 1 .07.094c.005.014.005.02.005.02h.75a.881.881 0 0 0-.156-.485.881.881 0 0 0-.395-.328l-.278.697zm-4.545 1.424c.76 0 1.375-.615 1.375-1.375h-.75c0 .345-.28.625-.625.625v.75zm-1.375-1.375c0 .76.615 1.375 1.375 1.375v-.75a.625.625 0 0 1-.625-.625h-.75zm1.375-1.375c-.76 0-1.375.616-1.375 1.375h.75c0-.345.28-.625.625-.625v-.75zm1.375 1.375c0-.76-.616-1.375-1.375-1.375v.75c.345 0 .625.28.625.625h.75zM12.881 6.067l3.2-1.4c.133-.067.267-.067.467 0l3.2 1.4c.266.133.533-.2.333-.467l-3.333-4.067a.5.5 0 0 0-.8 0L12.614 5.6c-.266.267 0 .6.267.467zM12.881 9.933l3.2 1.4c.133.067.267.067.467 0l3.2-1.4c.266-.133.533.2.333.467l-3.333 4.067a.5.5 0 0 1-.8 0L12.614 10.4c-.266-.267 0-.6.267-.467zM16.28 6.267 12.815 8l3.467 1.733L19.747 8l-3.466-1.733z" fill="currentColor"/></svg>
